src/assets/images/svg/languages/logo-typescript.svg

<svg width="31" height="32" viewBox="0 0 31 32" fill="none" xmlns="http://www.w3.org/2000/svg">
<g clip-path="url(#clip0_98_117)">
<path d="M0 16V0.5H31V31.5H0" fill="#009DF8"/>
<path d="M6.79663 16.0543V17.3175H10.8266V28.7875H13.6864V17.3175H17.7164V16.0775C17.7164 15.38 17.7164 14.8143 17.6854 14.7988C17.6854 14.7755 15.2286 14.7678 12.2449 14.7678L6.81988 14.791V16.062L6.79663 16.0543ZM24.9084 14.76C25.6989 14.946 26.3034 15.3025 26.8459 15.8683C27.1326 16.1783 27.5589 16.7208 27.5899 16.8603C27.5899 16.9068 26.2491 17.8135 25.4354 18.3173C25.4044 18.3405 25.2804 18.2088 25.1564 18.0073C24.7534 17.4338 24.3426 17.1858 23.6994 17.1393C22.7694 17.0773 22.1494 17.5655 22.1494 18.3793C22.1494 18.6273 22.1959 18.7668 22.2889 18.9683C22.4981 19.3945 22.8856 19.6503 24.0869 20.1773C26.3034 21.1305 27.2644 21.7583 27.8456 22.6573C28.5044 23.6648 28.6516 25.2458 28.2099 26.4315C27.7139 27.7258 26.5049 28.6015 24.7766 28.8883C24.2341 28.9813 22.9941 28.9658 22.4129 28.865C21.1729 28.6325 19.9871 28.0125 19.2586 27.2143C18.9719 26.9043 18.4216 26.075 18.4526 26.0208L18.7471 25.8348L19.9096 25.1605L20.7854 24.649L20.9869 24.9203C21.2426 25.3233 21.8161 25.8658 22.1494 26.0518C23.1569 26.571 24.5054 26.5013 25.1719 25.8968C25.4586 25.6333 25.5826 25.3543 25.5826 24.9668C25.5826 24.6103 25.5284 24.4475 25.3501 24.1763C25.1021 23.8353 24.6061 23.5563 23.2111 22.9363C21.6069 22.2543 20.9249 21.8203 20.2894 21.1538C19.9251 20.7508 19.5919 20.123 19.4369 19.6038C19.3206 19.1543 19.2819 18.0538 19.3904 17.612C19.7236 16.062 20.8939 14.977 22.5679 14.667C23.1104 14.5585 24.3891 14.605 24.9239 14.7445L24.9084 14.76Z" fill="#EFFBFF"/>
</g>
<defs>
<clipPath id="clip0_98_117">
<rect width="31" height="31" fill="white" transform="translate(0 0.5)"/>
</clipPath>
</defs>
</svg>

<svg xmlns="http://www.w3.org/2000/svg" width="31" height="32" fill="none"><g clip-path="url(#a)"><path fill="#009DF8" d="M0 16V.5h31v31H0"/><path fill="#EFFBFF" d="M6.797 16.054v1.264h4.03v11.47h2.86v-11.47h4.03v-1.24c0-.698 0-1.264-.032-1.28 0-.023-2.456-.03-5.44-.03l-5.425.023v1.271l-.023-.008Zm18.111-1.294c.79.186 1.395.543 1.938 1.108.287.31.713.853.744.992 0 .047-1.34.954-2.155 1.457-.03.023-.155-.108-.279-.31-.403-.573-.813-.821-1.457-.868-.93-.062-1.55.427-1.55 1.24 0 .248.047.388.14.59.21.425.597.681 1.798 1.208 2.216.954 3.177 1.581 3.759 2.48.658 1.008.806 2.589.364 3.774-.496 1.295-1.705 2.17-3.433 2.457-.543.093-1.783.078-2.364-.023-1.24-.232-2.426-.852-3.154-1.65-.287-.31-.837-1.14-.806-1.194l.294-.186 1.163-.675.875-.511.202.271c.256.403.83.946 1.162 1.132 1.008.519 2.356.45 3.023-.155.287-.264.41-.543.41-.93 0-.357-.054-.52-.232-.79-.248-.342-.744-.62-2.139-1.24-1.604-.683-2.286-1.117-2.922-1.783-.364-.403-.697-1.031-.852-1.55-.116-.45-.155-1.55-.047-1.992.334-1.55 1.504-2.635 3.178-2.945.542-.108 1.821-.062 2.356.078l-.016.015Z"/></g><defs><clipPath id="a"><path fill="#fff" d="M0 .5h31v31H0z"/></clipPath></defs></svg>
